assets/svg/1f4c1.svg

<svg xmlns="http://www.w3.org/2000/svg" viewBox="0 0 64 64" enable-background="new 0 0 64 64"><path fill="#962c2c" d="m54.36.171l-24.603 8.552c0 0-.884-1.97-1.702-3.149-1.912-2.75-5.179-1.905-5.179-1.905l-18.766 6.103c0 0-2.592 1.086-3.649 3.965-1.042 2.838 0 6.298 0 6.298l10.843 43.965 43.06-37.551c0 0 1.44-16.757 2.303-24.524.303-2.736-2.304-1.754-2.304-1.754"/><path fill="#9aabaf" d="M53.619 24.855 57.52.171 3.369 20.501 11.25 63.48z"/><path fill="#b3c0c4" d="M54.939 27.81 58.846.911 4.689 22.06 11.25 63.48z"/><path fill="#c5cfd3" d="M55.913 28.587 60.3 1.415 5.787 23.598 11.25 63.48z"/><path fill="#d9e3e8" d="m57.11 29.714l4.17-27.29-54.42 22.934 4.393 38.12z"/><path fill="#ff8736" d="m11.306 64l47.12-33.35 5.526-24.839c0 0 .274-.804-.521-1.75-.556-.661-1.528-.389-1.528-.389l-25.16 10.652c0 0-1.494 6.03-4.519 7.606-3.3 1.725-18.766 9.343-18.766 9.343s-2.204 1.31-3.475 3.419c-1.216 2.02-1.39 4.51-1.39 4.51l2.711 24.801"/></svg>

<svg xmlns="http://www.w3.org/2000/svg" width="64" height="64" viewBox="0 0 64 64"><path fill="#962C2C" d="M54.362.171L29.759 8.723s-.884-1.97-1.702-3.149c-1.912-2.75-5.179-1.905-5.179-1.905L4.112 9.772S1.52 10.858.463 13.737c-1.042 2.838 0 6.298 0 6.298L11.306 64l43.057-37.551s1.44-16.757 2.303-24.524C56.969-.811 54.362.171 54.362.171z"/><path fill="#9AABAF" d="M53.619 24.855L57.525.171 3.369 20.501l7.881 42.981z"/><path fill="#B3C0C4" d="M54.939 27.81L58.846.911 4.689 22.057l6.561 41.425z"/><path fill="#C5CFD3" d="M55.913 28.587l4.392-27.172L5.787 23.598l5.463 39.884z"/><path fill="#D9E3E8" d="M57.108 29.714l4.17-27.288L6.857 25.36l4.393 38.122z"/><path fill="#FF8736" d="M11.306 64l47.122-33.353 5.526-24.839s.274-.804-.521-1.75c-.556-.661-1.528-.389-1.528-.389l-25.16 10.652s-1.494 6.026-4.519 7.606c-3.3 1.725-18.766 9.343-18.766 9.343s-2.204 1.31-3.475 3.419c-1.216 2.021-1.39 4.51-1.39 4.51L11.306 64z"/></svg>
